src/dsmComponents/Icons/people-2-24px.svg

<?xml version="1.0" encoding="UTF-8"?>
<svg width="24px" height="24px" viewBox="0 0 24 24" version="1.1" xmlns="http://www.w3.org/2000/svg" xmlns:xlink="http://www.w3.org/1999/xlink">
    <!-- Generator: Sketch 59.1 (86144) - https://sketch.com -->
    <title>people-2-24px</title>
    <desc>Created with Sketch.</desc>
    <defs>
        <path d="M15,8 C16.657,8 18,9.343 18,11 L18,17 L15,17 L15,23 C15,23.552 14.552,24 14,24 L10,24 C9.448,24 9,23.552 9,23 L9,17 L6,17 L6,11 C6,9.343 7.343,8 9,8 L15,8 Z M5.026,8 C4.391,8.838 4,9.87 4,11 L4,11 L4,19 L6,19 L6,21 C6,21.552 5.552,22 5,22 L5,22 L3,22 C2.448,22 2,21.552 2,21 L2,21 L2,16 L0,16 L0,10 C0,8.895 0.895,8 2,8 L2,8 Z M22,8 C23.105,8 24,8.895 24,10 L24,16 L22,16 L22,21 C22,21.552 21.552,22 21,22 L19,22 C18.448,22 18,21.552 18,21 L18,19 L20,19 L20,11 C20,9.87 19.609,8.838 18.974,8 L22,8 Z M20,3 L20.1493158,3.00548319 C21.1845145,3.08179752 22,3.94522727 22,5 L22,5 L21.9945168,5.14931583 C21.9182025,6.18451446 21.0547727,7 20,7 L20,7 L19.8506842,6.99451681 C18.8154855,6.91820248 18,6.05477273 18,5 L18,5 L18.0054832,4.85068417 C18.0817975,3.81548554 18.9452273,3 20,3 L20,3 Z M4,3 C5.05477273,3 5.91820248,3.81548554 5.99451681,4.85068417 L6,5 C6,6.05477273 5.18451446,6.91820248 4.14931583,6.99451681 L4,7 C2.94522727,7 2.08179752,6.18451446 2.00548319,5.14931583 L2,5 C2,3.94522727 2.81548554,3.08179752 3.85068417,3.00548319 L4,3 Z M12,0 C13.5978214,0 14.9036709,1.24878444 14.9949078,2.82371269 L15,3 C15,4.59782143 13.7512156,5.90367092 12.1762873,5.99490784 L12,6 C10.4021786,6 9.09632908,4.75121556 9.00509216,3.17628731 L9,3 C9,1.40217857 10.2487844,0.0963290816 11.8237127,0.00509215561 L12,0 Z" id="path-1"></path>
    </defs>
    <g id="Final" stroke="none" stroke-width="1" fill="none" fill-rule="evenodd">
        <g id="All-Nucleo-Icons" transform="translate(-608.000000, -5278.000000)">
            <g id="Solo/Nucleo/24px/people-2" transform="translate(608.000000, 5278.000000)">
                <g id="multiple-11">
                    <g id="Colour/Default-Colour">
                        <mask id="mask-2" fill="white">
                            <use xlink:href="#path-1"></use>
                        </mask>
                        <use id="Mask" fill="#000000" fill-rule="nonzero" xlink:href="#path-1"></use>
                        <g id="colour/neutral/chia" mask="url(#mask-2)" fill="#737373">
                            <g transform="translate(-20.000000, -20.000000)" id="Colour">
                                <rect x="0" y="0" width="64" height="64"></rect>
                            </g>
                        </g>
                    </g>
                </g>
            </g>
        </g>
    </g>
</svg>

<svg width="24" height="24" xmlns="http://www.w3.org/2000/svg" xmlns:xlink="http://www.w3.org/1999/xlink"><defs><path d="M15 8a3 3 0 013 3v6h-3v6a1 1 0 01-1 1h-4a1 1 0 01-1-1v-6H6v-6a3 3 0 013-3h6zM5.026 8A4.948 4.948 0 004 11v8h2v2a1 1 0 01-1 1H3a1 1 0 01-1-1v-5H0v-6a2 2 0 012-2zM22 8a2 2 0 012 2v6h-2v5a1 1 0 01-1 1h-2a1 1 0 01-1-1v-2h2v-8c0-1.13-.391-2.162-1.026-3H22zm-2-5l.15.005A2 2 0 0122 5l-.005.15A2 2 0 0120 7l-.15-.005A2 2 0 0118 5l.005-.15A2 2 0 0120 3zM4 3a2 2 0 011.995 1.85L6 5a2 2 0 01-1.85 1.995L4 7a2 2 0 01-1.995-1.85L2 5a2 2 0 011.85-1.995L4 3zm8-3a3 3 0 012.995 2.824L15 3a3 3 0 01-2.824 2.995L12 6a3 3 0 01-2.995-2.824L9 3A3 3 0 0111.824.005L12 0z" id="people-2-24px_svg__a"/></defs><use fill="#737373" xlink:href="#people-2-24px_svg__a" fill-rule="evenodd"/></svg>
